!!!ONB: MCCC : IJH0429_01 : Extracted Monophonic Melody
!!!COM: Haydn, Joseph
!!!OPR: String Quartet in D major
!!!OMV: 1
!!!SCT: Hob.III:42 ; Op.33 No.6
!!!ODT: 1781///
**kern
*thru
*k[f#c#]
*D:
*clefF
*M6/8
8aa
=1
8aa
8ddd
8bb
8aa
8r
8aa
=2
8aa
8gg
8ff#
8ee
8r
8gg
=3
8gg
8ff#
8ee
8dd
8r
8dd
=4
4ee
8ff#
8dd
8r
8aa
=5
16aa
16bb
16ccc#
16ddd
16ccc#
16bb
8aa
8r
8aa
=6
8aa
8gg
8ff#
8ee
8r
8gg
=7
16gg
16aa
16ff#
16gg
16ee
16ff#
8dd
8r
8dd
=8
4ee
8ff#
8dd
8r
8dd
=9
4ee
8ff#
4dd
8ee
=10
4ff#
8gg
4ee
8ff#
=11
4gg
8aa
8ff#
8ee
8dd
=12
4gg
8aa
8ff#
8ee
8dd
=13
4gg
8bb
8gg
8ff#
8gg
=14
4ff#
8aa
8dd
8cc#
8dd
=15
4ee
8gg
8cc#
8b
8cc#
=16
16ff#
16aa
16gg
16bb
8aa
8dd
8cc#
8dd
=17
16ee
16gg
16ff#
16aa
8gg
8cc#
8b
8cc#
=18
4dd
8a
8f#
8r
8aa
=19
4gg
8ee
8cc#
4r
=20
2r
8r
8aa
=21
8ff#
8gg
8ee
8cc#
4r
=22
2r
8r
8ddd
=23
8aa#
8bb
8aa
8ff#
8gg
8dd#
=24
8ee
8bb
8dd#
8ee
8bb
8dd#
=25
8ee
8bb
8aa
8gg
8ff#
8ee
=26
4.dd
4cc#
8ee
=27
16ee
16ff#
16gg#
16aa
16gg#
16ff#
8ee
8aa
8ccc#
=28
2ddd
8bb
8gg#
=29
4..aa
16bb
16ccc#
16ddd
16ccc#
16bb
=30
4.aa
16aa
16bb
16ccc#
16bb
16aa
16gg#
=31
4.ff#
4.ddd
=32
16ddd
16eee
16fff#
16eee
8ddd
16ccc#
16ddd
16eee
16ddd
8ccc#
=33
16bb
16ccc#
16ddd
16ccc#
8bb
8bb
8ccc#
8aa
=34
8ee
8gg#
8bb
8eee
8eee
8eee
=35
2.eee
=36
2.eee[
=37
2.eee]
=38
8ee
8aa
8ccc#
8ddd
8bb
8gg#
=39
2.eee[
=40
4.eee]
4.ddd[
=41
8ddd]
8bb
8ddd
8ccc#
8aa
8ee
=42
8dd
8ff#
8bb
8b
8dd
8gg#
=43
8a
8cc#
8ee
8aa
8ccc#
8eee
=44
4.eee
4.ddd#
=45
4.ddd
4.ccc#
=46
8bb
8ddd
8aa#
8bb
8ddd
8aa#
=47
8bb
8dd
8ff#
8aa#
8bb
8ddd
=48
4.ee
4.bb
=49
4aa
8a
8a
8g#
8a
=50
4b
8b
8b
8a
8b
=51
4cc#
8a
8a
8g#
8a
=52
4b
8b
8b
8a
8b
=53
4cc#
8cc#
8dd
8cc#
8dd
=54
4ee
8ee
8ff
8ee
8dd
=55
2.aa
=56
2.aa
=57
2.aa
=58
4.aa[
4aa]
8f
=59
4f
8c
8A
8r
8ccc
=60
8ccc
8ddd
8aa
8bb-
8r
8b-
=61
4b-
8g
8e
8r
8bb-
=62
8bb-
8ccc
8gg
8aa
4r
=63
2.r
=64
4r
8ff
8ff
8gg
8cc
=65
8dd
8ff
8b-
4.ff#
=66
4.gg
4.gg#
=67
4aa
8ccc
8ccc
8bb
8aa
=68
2.eee[
=69
2.eee]
=70
4.eee[
4eee]
8ee
=71
8ee
8aa
8ff#
8ee
8r
8ee
=72
8ee
8dd
8cc#
8b
8r
8dd
=73
8dd
8cc#
8b
8a
8r
8a
=74
4b
8cc#
8a
8aa
8aa
=75
2.aa
=76
2.aa[
=77
2.aa]
=78
16aa
16bb
16ccc#
16ddd
16ccc#
16bb
8aa
8r
8aa
=79
8aa
8gg
8ff#
8ee
8r
8gg
=80
16gg
16aa
16ff#
16gg
16ee
16ff#
8dd
8r
8dd
=81
4ee
8ff#
8dd
8r
8dd
=82
4ee
8ff#
4dd
8ee
=83
4ff#
8gg
4ee
8ff#
=84
4gg
8aa
8ff#
8ee
8dd
=85
4gg
8aa
8ff#
8ee
8dd
=86
4gg
8aa-
8ff
8ee-
8dd
=87
4.ee-
4.ff
=88
4gg
8aa-
8ff
8ee-
8ff
=89
4.ee-
4.dd
=90
4dd
8ee-
8cc
8b
8cc
=91
4.cc
4.b
=92
4b-
8dd-
8b-
8a
8b-
=93
2.b-
=94
4.a
4.aa
=95
4bb-
8ddd
8bb-
8aa
8bb-
=96
2.aa
=97
4.gg#
4.aa
=98
4.ff#
4.gg
=99
4gg
8bb
8gg
8ff#
8gg
=100
4ff#
8aa
8dd
8cc#
8dd
=101
4ee
8gg
8cc#
8b
8cc#
=102
16ff#
16aa
16gg
16bb
8aa
8dd
8cc#
8dd
=103
16ee
16gg
16ff#
16aa
8gg
8cc#
8b
8cc#
=104
4dd
8a
8f#
8r
8aa
=105
4gg
8ee
8cc#
4r
=106
2r
8r
8aa
=107
8ff#
8gg
8ee
8cc#
4r
=108
2r
8r
8ddd
=109
8aa#
8bb
8aa
8ff#
8gg
8bb
=110
8ff#
8gg
8ff#
8dd#
8ee
8dd#
=111
4ee
8ff#
4gg
8cc#
=112
4dd
8ee
8ff#
8r
8dd
=113
8a#
8b
4.r
8ee
=114
8cc
8cc#
4.r
8ff#
=115
8cc#
8dd
8gg
8dd#
8ee
8aa
=116
4.aa
16aa
16bb
16ccc#
16ddd
16eee
16fff#
=117
4..ggg
16eee
16ccc#
16eee
16ccc#
16eee
=118
4.fff#
16aa
16ddd
16fff#
16ddd
16fff#
16ddd
=119
4..ggg
16eee
16ccc#
16eee
16ccc#
16eee
=120
4.ddd
16ddd
16eee
16fff#
16eee
16ddd
16ccc#
=121
16bb
16ccc#
16ddd
16ccc#
16bb
16aa
16gg
16aa
16bb
16aa
16gg
16ff#
=122
16ee
16ff#
16gg
16ff#
16ee
16dd
16cc#
16dd
16ee
16dd
16cc#
16b
=123
8a
8dd
8ff#
8b
8ee
8gg
=124
8ff#
8aa
8dd
8gg
8ee
8cc#
=125
8dd
8f#
8a
8dd
8ff#
8aa
=126
2.aa
=127
2.aa[
=128
2.aa]
=129
8a
8dd
8ff#
8gg
8ee
8cc#
=130
2.aa[
=131
4.aa]
4.gg
=132
8gg
8ee
8gg
8ff#
8dd
8a
=133
8g
8b
8ee
8e
8g
8cc#
=134
8d
8f#
8a
8dd
8ff#
8aa
=135
4.aa
4.gg#
=136
4.gg
4.ff#
=137
8ee
8gg
8dd#
8ee
8bb
8cc#
=138
8dd
8ff#
8cc#
8dd
8aa
8dd#
=139
8ee
8gg
8dd#
8ee
8bb
8cc#
=140
8dd
8ff#
8cc#
8dd
8ff#
8aa
=141
4.gg#
4.gg
=142
8ff#
8aa
8ddd
8bb
8gg
8ee
=143
4.a
4.ee
=144
4dd
8dd
8dd
8cc#
8dd
=145
4ee
8ee
8ee
8dd
8ee
=146
4ff#
8dd
8dd
8cc#
8dd
=147
4ee
8ee
8ff#
8ee
8ff#
=148
4gg
8gg#
8gg#
8ff#
8gg#
=149
2.aa
=150
2.aa
=151
2.aa
=152
4.aa[
4aa]
8r
=153
4aa
8ccc#
8ccc#
8bb
8ccc#
=154
4.ddd
4.bb
=155
8aa
8ff#
8aa
8gg
8ee
8cc#
=156
4dd
4.r
8aa
=157
4gg
8ee
8cc#
4r
=158
2r
8r
8aa
=159
8ff#
8gg
8ee
8cc#
4r
=160
2r
8r
8ddd
=161
8aa#
8bb
8dd#
8ee
8ff#
8gg
=162
4.a
4.ee
=163
4dd
4.r
8dd
=164
8cc
8dd
8b
4a
8cc
=165
4a#
8b
4g
8b
=166
8b
8g
8e
8g
8e
8c#
=167
2.c#
=168
4d
2r
==
*-
